X:97
T:Saddle the Pony
M:6/8
R:jig
Z:robin.beech@mcgill.ca
K:G
D |: GBA G2B| def gdB| GBA G2B| AFD AFD | GBA G2B |
def gfg | ege dBG |1 ABA G2D :|2 ABA G2d |: ege edB |
def gfg | ege edB | dBA A2d | ege edB | def gfg |
ege dBG |1 ABA G2 d :|2 ABA G3 |]
